X:1
T:Bless This Hour of Prayer
T:Bless This Hour of Prayer
T:William Howard Doane
T:Frances Jane (Fanny) Crosby, 1868
T:Public Domain Courtesy of the Cyber Hymnal™
T:Public Domain Courtesy of the Cyber Hymnal™
C:William Howard Doane
Z:Public Domain
Z:Courtesy of the Cyber Hymnal™
%%score ( 1 2 ) ( 3 4 )
L:1/8
Q:1/4=105
M:6/8
K:D
V:1 treble 
V:2 treble 
V:3 bass 
V:4 bass 
V:1
 D | (F^E)[DF] [A,D]2 [DF] | ([FA][^E^G])[FA] [DF]2 [FA] | (Bc)[Gd] [FA]2 [DF] | %4
w: 1.~Come|in * our midst, O|gra- * cious Lord, Un-|veil * Thy smil- ing|
w: 2.~Come|in * our midst, O|gra- * cious Lord, Thy|prom- * ise we be-|
w: 3.~Come|in * our midst, O|gra- * cious Lord, E-|tern- * al King of|
 [CE]3- [CE]2 [A,D] | (F^E)[DF] D2 [DF] | ([FA][^E^G])[FA] [GB]2 [GB] | ([FA][DF])D [CE]2 [CF] | %8
w: face, * Dis-|til * in ev- ery|wait- * ing heart, The|dew * of heaven- ly|
w: lieve, * That|bids * us seek and|we * shall find, Ask|and * we shall re-|
w: kings, * And|fold * the child- ren|of * the law Be-|neath * Thy might- y|
 [A,D]3- [A,D]2 z [FA] | (dc)[GB] [Gd]2 [GB] | ([FA][EG])[DF] [FA]2 [FA] | (dc)[GB] [FA]2 F | %12
w: grace; * From|earth- * ly scenes we|turn * a- side, On|Thee * we cast our|
w: ceive; * We|ga- * ther at Thy|mer- * cy seat, Our|on- * ly hope is|
w: wings; * Sup-|port * the weak, the|mourn- * er cheer, Help|all * their cross to|
 [CE]3- [CE]2 [A,D] | (F^E)[DF] D2 [DF] | ([FA][^E^G])[FA] !fermata![GB]2 [GB] | %15
w: care; * We|wor- * ship in Thy|ho- * ly name; O!|
w: there, * We|plead * the mer- its|of * Thy blood; O!|
w: bear; * Thou|spring * of joy, Thou|source * of life, O!|
 ([FA][DF])D [CE]2 [CF] | [B,D]3- [B,D]2 z |] %17
w: bless * this hour of|prayer. *|
w: bless * this hour of|prayer. *|
w: bless * this hour of|prayer. *|
V:2
 D | D2 x4 | x6 | G2 x4 | x6 | D2 D2 x2 | x6 | x2 D x3 | x7 | G2 x4 | x6 | G2 x4 | x6 | C2 D2 x2 | %14
 x6 | x2 D x3 | x6 |] %17
V:3
 [D,F,] | (A,^G,)[D,A,] [D,F,]2 [D,A,] | [A,,D,D]2 [A,,D,C] [D,A,]2 [D,D] | %3
 [G,D]2 [G,B,] [D,D]2 [D,A,] | [A,,A,]3- [A,,A,]2 [D,F,] | (A,^G,)[D,A,] [F,A,]2 [D,A,] | %6
 [D,D]2 [D,D] [G,D]2 [G,D] | (DA,)[D,A,] [A,,A,]2 [A,,A,] | [D,F,]3- [D,F,]2 z [B,,F,] | %9
 (B,^A,)[G,D] [G,B,]2 [G,D] | (DA,)[D,A,] [D,D]2 [D,D] | (B,^A,)[G,B,] [D,D]2 [D,A,] | %12
 [A,,A,]3- [A,,A,]2 [D,F,] | (A,^G,)[D,A,] [F,A,]2 [D,A,] | [D,D]2 [D,D] !fermata![G,D]2 [G,D] | %15
 (DA,)[D,A,] [A,,A,]2 [A,,A,] | [D,F,]3- [D,F,]2 z |] %17
V:4
 x | D,2 x4 | x6 | x6 | x6 | D,2 x4 | x6 | D,2 x4 | x7 | G,2 x4 | D,2 x4 | G,2 x4 | x6 | D,2 x4 | %14
 x6 | D,2 x4 | x6 |] %17

